X:1180
T:Colonel McLean's March.
M:C
L:1/8
Q:1/2=72
I: :: ::
Z:Jack Campin * www.campin.me.uk * 2009
K:D
[V:1] A2|d2 d>d d2 e2 |f2 f>f f2 g2|a2(ba) (ag)(gf)|e2 e>e e2:|
[V:2] z2|z4     z2 A2 |d2 d>d d2 e2|f2(gf) (fe)(ed)|A2 A>A A2:|
%
[V:1] f2|e>fe>f e2 f2 |e2 e>e e2 g2|f>gf>g  f2  g2 |f2 f>f f2
[V:2] d2|A>dA>d A2 d2 |A2 A>A A2 e2|d>ed>e  d2  e2 |d2 d>d d2
%
[V:1] a2|b>ga>f g>ef>g|f2Te2  d>fe>g|f>ga>g f2 Te2 |d2 d>d d2:|
[V:2] f2|g>ef>d e>Ad>e|d2 A2  F2 A2 |d>ef>e d2  A2 |F2 F>F F2:|
